X:3570
T:Laura
O:england
N:tune was known to Thomas Hardy
M:4/4
L:1/8
K:G
|:D2|GFGA G2B2|d^cde d2g2|edcB cBAG|FGAB A2D2|
GFGA G2B2|d^cde d2g2|edcB AGAB|G2B2G2:|
|:D2|FEFG A2F2|GFGA B2d2|c2e2B2d2|AGAB A2D2|
FEFG A2F2|GFGA B2d2|c2e2d2F2|G4G2:|
